X: 0
T: Salzburg
Z: J. Hintze, 1622-1702
Z: Copyright © 2005 by Douglas D. Anderson
Z: Released to the Public Domain
L: 1/4
M: 4/4
V: P1 name="Soprano"
%%MIDI program 1 19
V: P2 name="Alto"
%%MIDI program 2 60
V: P3 name="Tenor"
%%MIDI program 3 57
V: P4 name="Bass"
%%MIDI program 4 58
K: D
[V: P1]  A d A B | A3/ G/ F2 | A A G F | E E D2 | A d A B | A3/ G/ F2 | A A G F | E E D2 | E E (F/^G/) A | A ^G A2 | B3/ c/ d d | c c B2 | F F B A | A ^G A2 | B A G F | E E D2|]
[V: P2]  D D D D | D C D2 | D (D/C/) (B,/C/) D | D C D2 | D D D D | D C D2 | D (D/C/) (B,/C/) D | D C D2 | C C D C | F (E/D/) C2 | (E/F/) G F F | F (F/E/) D2 | D D D C | D D C2 | D (D/C/) (B,/C/) D | D C D2|]
[V: P3]  F, (F,/G,/) A, (G,/F,/) | (E,/D,/) E, D,2 | F, F, G, A, | B, A, F,2 | F, (F,/G,/) A, (G,/F,/) | (E,/D,/) E, D,2 | F, F, G, A, | B, A, F,2 | A, A, A, A, | B, B, A,2 | G,3/ A,/ B, B, | B, ^A, B,2 | A, A, (G,/F,/) E, | (D,/F,/) (E,/D,/) E,2 | G, F, G, A, | B, A, F,2|]
[V: P4]  D, B,, F,, G,, | A,, A,, D,2 | D, D, E, F, | G, A, D,2 | D, B,, F,, G,, | A,, A,, D,2 | D, D, E, F, | G, A, D,2 | A,, A,, D, (F,/E,/) | D, E, A,,2 | E, E, (B,,/C,/) (D,/E,/) | F, F, B,,2 | D, D, G,, A,, | B,, B,, A,,2 | G,, D, E, F, | G, A, D,2|]

